images/trash.svg

<svg width="18" height="19" viewBox="0 0 18 19" fill="none" xmlns="http://www.w3.org/2000/svg">
<path d="M2.45787 17.86C2.51882 18.52 3.06735 19 3.73778 19H14.2615C14.9319 19 15.4804 18.5 15.5414 17.86L16.7197 5.69995H1.27954L2.45787 17.86Z" fill="white"/>
<path d="M16.7201 1.9H11.5801V1.26C11.5801 0.560001 11.0113 0 10.3002 0H7.72009C7.00903 0 6.44018 0.560001 6.44018 1.26V1.9H1.27991C0.568849 1.9 0 2.46 0 3.16C0 3.86001 0.568849 4.42001 1.27991 4.42001H16.7201C17.4312 4.42001 18 3.86001 18 3.16C18 2.46 17.4312 1.9 16.7201 1.9Z" fill="white"/>
</svg>

<svg width="18" height="19" fill="none" xmlns="http://www.w3.org/2000/svg"><path d="M2.458 17.86c.06.66.61 1.14 1.28 1.14h10.524c.67 0 1.218-.5 1.28-1.14L16.72 5.7H1.28l1.178 12.16ZM16.72 1.9h-5.14v-.64c0-.7-.569-1.26-1.28-1.26H7.72C7.01 0 6.44.56 6.44 1.26v.64H1.28C.569 1.9 0 2.46 0 3.16s.569 1.26 1.28 1.26h15.44c.711 0 1.28-.56 1.28-1.26s-.569-1.26-1.28-1.26Z" fill="#fff"/></svg>
